!!!!SEGMENT: Fsc2005-Regem_archangelorum.krn
!!!id: Fsc2005
!!!AGN: Motet
!!!SCT: Seay (1979)
!!!voices: 4
!!!COM: Costanzo Festa
!!!OTL: Regem archangelorum
**kern	**kern	**kern	**kern
*part4	*part3	*part2	*part1
*staff4	*staff3	*staff2	*staff1
*I"Bassus	*I"Tenor	*I"Altus	*I"Superius
*I'B	*I'T	*I'A	*I'S
*clefF4	*clefGv2	*clefGv2	*clefG2
*k[b-]	*k[b-]	*k[b-]	*k[b-]
*F:	*F:	*F:	*F:
*M2/1	*M2/1	*M2/1	*M2/1
*met(C|)	*met(C|)	*met(C|)	*met(C|)
!!section: Prima pars: Regem archangelorum
!!!OMD: Prima pars: Regem archangelorum
=1	=1	=1	=1
0G	0G	0d	0g
=2	=2	=2	=2
0C	0c	0e	0g
=3	=3	=3	=3
1G	1d	1g	1b-y
2G	2d	2g	2b-y
2G	2d	2g	2b-y
=4	=4	=4	=4
0B-y	0d	0f	0b-y
=5	=5	=5	=5
0F	0c	0f	0a
=6	=6	=6	=6
1.C	1.c	1.e	1.g
2C	2c	2e	2g
=7	=7	=7	=7
1C	1c	1e	1g
[1BB-y	[1d	[1f	[1b-y
=8	=8	=8	=8
2BB-]	2d]	2f]	2b-]
2BB-y	2d	2f	2b-y
1BB-y	1d	1f	1b-y
=9	=9	=9	=9
1BB-y	1f	2r	1dd
.	.	2B-y	.
2C	2e	2G	2cc
[2BB-y	[2f	4B-y	[2dd
.	.	4c	.
=10	=10	=10	=10
4BB-]	2f]	4d	2dd]
4C	.	4e	.
4D	4e	1f	4cc
4E	4d	.	4b-y
2F	2c	.	2a
2D	2d	2f	2b-y
=11	=11	=11	=11
1C	1e-X	1g	1cc
1D	1d	1f	2b-y
.	.	.	[2a
=12	=12	=12	=12
2E-X	2B-y	1e	4a]
.	.	.	4g
2C	2c	.	2.g
1D	1A	1d	.
.	.	.	4f#i
.	.	.	4f#i
.	.	.	4e
=13	=13	=13	=13
[0G	0G	0d	1g
.	.	.	1r
=14	=14	=14	=14
0G]	0r	1r	1g
.	.	1G	1g
=15	=15	=15	=15
0r	0r	1G	1dd
.	.	1d	2dd
.	.	.	4cc
.	.	.	4b-y
=16	=16	=16	=16
0r	0r	1d	2a
.	.	.	2b-y
.	.	1d	2a
.	.	.	[2f
=17	=17	=17	=17
0r	0r	1.d	2f]
.	.	.	2.b-y
.	.	.	4a
.	.	2d	[2a
=18	=18	=18	=18
0r	0r	1d	2a]
.	.	.	4g
.	.	.	4f
.	.	1c	4e
.	.	.	4d
.	.	.	2e
=19	=19	=19	=19
0r	0r	1.f	4d
.	.	.	4e
.	.	.	4f
.	.	.	4g
.	.	.	4a
.	.	.	4b-y
.	.	4e	[2cc
.	.	4d	.
=20	=20	=20	=20
0r	0r	4e	4cc]
.	.	4d	4b-y
.	.	4c	2.b-y
.	.	4B-y	.
.	.	1c	.
.	.	.	4a
.	.	.	4a
.	.	.	4g
=21	=21	=21	=21
0r	0r	1B-y	2b-y
.	.	.	2.dd
.	.	1f	.
.	.	.	4cc
.	.	.	[2cc
=22	=22	=22	=22
0r	0r	1e	4cc]
.	.	.	4b-y
.	.	.	4a
.	.	.	4g
.	.	1d	2f
.	.	.	[2b-y
=23	=23	=23	=23
0r	0r	2B-y	4b-]
.	.	.	4a
.	.	2c	2.g
.	.	1A	.
.	.	.	8f#iL
.	.	.	8eJ
.	.	.	2f#i
=24	=24	=24	=24
1r	0r	0G	1g
1G	.	.	1r
=25	=25	=25	=25
1B-y	1G	1r	1g
1B-y	1d	2r	1b-y
.	.	2d	.
=26	=26	=26	=26
2B-y	1d	1f	1b-y
1B-y	.	.	.
.	2d	1f	2b-y
2B-y	[2d	.	[2b-y
=27	=27	=27	=27
0B-y	2d]	2f	2b-]
.	2d	1f	2b-y
.	1d	.	1b-y
.	.	2f	.
=28	=28	=28	=28
1F	1c	1f	1a
1G	1B-y	1d	[1g
=29	=29	=29	=29
1C	1c	1e	1g]
1D	1A	1d	[1f
=30	=30	=30	=30
1r	1B-y	2r	1f]
.	.	2d	.
1D	1A	1f	1r
=31	=31	=31	=31
1F	1r	1f	1a
1F	1A	2c	1cc
.	.	[2f	.
=32	=32	=32	=32
0C	1c	2f]	1cc
.	.	4e	.
.	.	4d	.
.	1c	2e	2g
.	.	2c	[2cc
=33	=33	=33	=33
1r	1G	1d	4cc]
.	.	.	8bniL
.	.	.	8aJ
.	.	.	2bni
1C	1r	1e	1cc
=34	=34	=34	=34
2D	1f	1d	2a
2BB-y	.	.	2dd
2C	2e	2r	2cc
[2BB-y	[2f	[2d	[2dd
=35	=35	=35	=35
4BB-]	4f]	4d]	4dd]
4C	4e	4e	4cc
4D	2d	2.f	1b-y
4E	.	.	.
2F	1c	.	.
.	.	4e	.
2F	.	4d	2a
.	.	4c	.
=36	=36	=36	=36
0BB-y	1B-y	1d	1b-y
.	2r	2r	2r
.	[2f	[2d	[2dd
=37	=37	=37	=37
0r	2f]	2d]	2dd]
.	2e	2g	2cc
.	2d	2f	2b-y
.	2c	2e	2a
=38	=38	=38	=38
1r	2B-y	2d	2g
.	2A	2c	2f
2r	1G	1d	2g
[2B-y	.	.	[2dd
=39	=39	=39	=39
2B-]	1f	2r	2dd]
2F	.	2f	2.cc
1c	1e	[1g	.
.	.	.	4b-y
.	.	.	4a
.	.	.	4g
=40	=40	=40	=40
2G	1d	2g]	2b-y
2D	.	2.f	2.a
2F	2c	.	.
.	.	4e	4g
2G	2B-y	[2d	[2g
=41	=41	=41	=41
1D	1A	4d]	2g]
.	.	4c	.
.	.	2d	2f#i
1G	1G	[1B-y	[1g
=42	=42	=42	=42
2r	2d	1B-]	1g]
2G	2.d	.	.
2.G	.	1r	1r
.	4d	.	.
.	2d	.	.
4G	.	.	.
=43	=43	=43	=43
2G	2d	0r	0r
2G	2e	.	.
2A	2f	.	.
2B-y	[2g	.	.
=44	=44	=44	=44
1c	2g]	0r	0r
.	2.e	.	.
2r	.	.	.
.	4f	.	.
2C	[2g	.	.
=45	=45	=45	=45
2.C	4g]	0r	0r
.	4f	.	.
.	4e	.	.
4C	4d	.	.
2C	4c	.	.
.	4B-y	.	.
2C	4A	.	.
.	4G	.	.
=46	=46	=46	=46
2D	2F	0r	0r
2E	2G	.	.
2.F	2.A	.	.
4G	4B-y	.	.
=47	=47	=47	=47
4A	4c	0r	0r
4B-y	4d	.	.
2.c	2.e	.	.
4B-y	4d	.	.
4A	[2g	.	.
4G	.	.	.
=48	=48	=48	=48
1A	4g]	1r	1r
.	4f#i	.	.
.	4f#i	.	.
.	4e	.	.
1G	1g	2r	2r
.	.	[2g	[2b-y
=49	=49	=49	=49
2r	2r	2g]	2b-]
1G	1d	2g	2b-y
.	.	2g	2b-y
2G	2d	2g	2b-y
=50	=50	=50	=50
2B-y	2d	2f	2b-y
2B-y	2d	2f	2b-y
2G	2d	2g	2b-y
2G	2d	2g	2b-y
=51	=51	=51	=51
2B-y	2d	2f	2b-y
2B-y	2d	2f	2b-y
2G	1d	1g	[1b-y
2G	.	.	.
=52	=52	=52	=52
1B-y	1d	0f	1b-]
1F	2.c	.	2.a
.	4B-y	.	4g
=53	=53	=53	=53
2r	4c	2r	4a
.	4d	.	4b-y
1C	2.e	1g	1cc
.	4d	.	.
2D	[2d	2f	4b-y
.	.	.	4a
=54	=54	=54	=54
1E	4d]	2g	1g
.	4c	.	.
.	4c	2G	.
.	4B-y	.	.
1D	1d	1A	1f
=55	=55	=55	=55
2r	2r	2r	2r
1D	1d	1A	1f
2D	2d	2A	2f
=56	=56	=56	=56
2G	2d	2B-y	2g
2G	2e	2B-y	2g
1F	1f	1c	1a
=57	=57	=57	=57
2r	2r	2r	2r
2B-y	2d	2B-y	2b-y
2B-y	2d	2f	2b-y
2F	2c	2f	2a
=58	=58	=58	=58
1G	1B-y	1d	1g
1D	1A	1d	1f
=59	=59	=59	=59
1G	1B-y	1d	1g
2C	2c	2e-X	2g
2C	2c	2e-i	2a
=60	=60	=60	=60
1D	1A	2d	0f
.	.	2d	.
1r	2r	2.d	.
.	2d	.	.
.	.	4c	.
=61	=61	=61	=61
2r	2.d	2.B-y	1r
2d	.	.	.
.	4c	4A	.
2.d	2B-y	2G	2r
.	2A	2D	2dd
4c	.	.	.
=62	=62	=62	=62
2B-y	2G	0d	2.dd
2A	2D	.	.
.	.	.	4cc
2G	2G	.	2b-y
2F	2A	.	[2a
=63	=63	=63	=63
2E-X	2B-y	2e-X	4a]
.	.	.	4g
2C	2c	2e-i	2.g
1D	1A	1d	.
.	.	.	4f#i
.	.	.	4f#i
.	.	.	4e
=64	=64	=64	=64
1G	1G	2r	0g
.	.	2d	.
1r	2r	2.d	.
.	2d	.	.
.	.	4c	.
=65	=65	=65	=65
2r	2.d	2.B-y	1r
2d	.	.	.
.	4c	4A	.
2.d	2B-y	2G	2r
.	2A	2D	2dd
4c	.	.	.
=66	=66	=66	=66
2B-y	2G	0d	2.dd
2A	2D	.	.
.	.	.	4cc
2G	2G	.	2b-y
2F	2A	.	[2a
=67	=67	=67	=67
2E-X	2B-y	2e	4a]
.	.	.	4g
2C	2c	2e	2.g
1D	1A	[1d	.
.	.	.	4f#i
.	.	.	4f#i
.	.	.	4e
=68	=68	=68	=68
1G	1G	0d_	2g
.	.	.	1b-y
1GG	1B-y	.	.
.	.	.	4a
.	.	.	4g
=69	=69	=69	=69
0D	0A	0d]	0f
=70	=70	=70	=70
00GGl	00Gl	00dl	00gl
==	==	==	==
*-	*-	*-	*-
!!!system-decoration: [*]
!!!RDF**kern: i = editorial accidental
!!!RDF**kern: l = terminal long
!!!ENC: Benjamin Ory
!!!END: 2021/1/14
!!!EED: Benjamin Ory
!!!EEV: 2021/04/23
!!!YEC: Copyright 2021 Benjamin Ory, All Rights Reserved
!!!ONB: Translated from MusicXML on 2021/04/23
